packages/foundations/assets/icons/functional/images/navigation/magnifying_glass_20.svg

<svg width="20" height="20" viewBox="0 0 20 20" fill="none" xmlns="http://www.w3.org/2000/svg">
<g clip-path="url(#clip0_187_100)">
<path fill-rule="evenodd" clip-rule="evenodd" d="M9 2C12.8699 2 16 5.13008 16 9C16 10.5935 15.4634 12.0163 14.6179 13.187L17.7073 16.2764C17.9024 16.4715 18 16.7317 18 16.9919C18 17.5434 17.5623 18 17.0285 18C16.7805 18 16.5203 17.9024 16.2764 17.7073L13.187 14.6179C12.0163 15.4959 10.561 16 9 16C5.13008 16 2 12.8699 2 9C2 5.13008 5.13008 2 9 2ZM8.99187 4.01626C6.22764 4.01626 4.01626 6.22764 4.01626 8.99187C4.01626 11.7561 6.22764 14 8.99187 14C11.7561 14 14 11.7561 14 8.99187C14 6.22764 11.7561 4.01626 8.99187 4.01626Z" fill="#1A1C1F"/>
</g>
<defs>
<clipPath id="clip0_187_100">
<rect width="20" height="20" fill="white"/>
</clipPath>
</defs>
</svg>

<svg xmlns="http://www.w3.org/2000/svg" width="20" height="20" fill="none"><g clip-path="url(#a)"><path fill="#1A1C1F" fill-rule="evenodd" d="M9 2c3.87 0 7 3.13 7 7 0 1.594-.537 3.016-1.382 4.187l3.09 3.09c.194.194.292.455.292.715 0 .551-.438 1.008-.971 1.008-.248 0-.509-.098-.753-.293l-3.089-3.09A6.96 6.96 0 0 1 9 16c-3.87 0-7-3.13-7-7s3.13-7 7-7m-.008 2.016a4.955 4.955 0 0 0-4.976 4.976C4.016 11.756 6.228 14 8.992 14A5.01 5.01 0 0 0 14 8.992c0-2.764-2.244-4.976-5.008-4.976" clip-rule="evenodd"/></g><defs><clipPath id="a"><path fill="#fff" d="M0 0h20v20H0z"/></clipPath></defs></svg>
